X: 35
T: the Flogging Reel
R: reel
Z: 2012 John Chambers <jc@trillian.mit.edu>
B: "100 Essential Irish Session Tunes" 1995 Dave Mallinson, ed.
M: 4/4
L: 1/8
K: G
|: "G"BG~G2 BGdG | BG~G2 Bdgd | BG~G2 BGdG | "D7"AGFG ABcA :|
[| "G"g2gd BGBd | g2ge "D7"fgaf | "G"gfgd BGBd | "D7"AGFG ABcA |
 | "G"g2gd BGBd | g2ge "D7"fgag | "Em"bgaf gedB | "Am"AGFG "D7"ABcA |]
[| "G"Bdgd Bdgd | Bdgd BGGB | "F"Ac=fc Acfc | Ac=fc A=FFA |
 | "G"Bdgd Bdgd | Bdef g2ga | "Em"bgaf gedB | "Am"AGFG "E7"ABcA |]

%%sep 2 1 500
%%sep 1 1 500

